X:60
T:Bound to Ride
C:Adam Steffey solo
A:Bound to Ride
N:Transcribed by Kim Davis
R:bluegrass
L:1/8
Q:1/4=220
M:4/4
K:E
{=d}"E"ee ef e2 e2 | ef fg f2 fg | "B"ag ag fe gf | =d^d fe =d^d fe | "F#"dc c2 d2 ef | 
fg f2 fg ag | "B"ag fe gf e=d | df e=d ^df e=d | df e=d ^df e=d | de fa bf ab | 
fb ea fe df | e=d ^df ed Bd | Ad BF ED B,2 | B,B, B,2 ^A,2 [D2=A,2] ||

